X:1
T:Lobe den Herren
T:Lobe den Herren
%%score 1 2
L:1/8
Q:1/4=90
M:3/4
K:F
V:1 treble nm="Violin" snm="Vln."
V:2 bass nm="Violoncello" snm="Vc."
V:1
 F2 F2 c2 | A3 G F2 | E2 D2 C2 | D2 E2 F2 | G6 | F6 :| c2 c2 c2 | d6 | A2 B2 c2 | c3 B A2 | G6 | %11
 C2 D2 E2 | F2 G2 A2 | G6 | F6 |] %15
V:2
 F,2 D,2 E,2 | F,2 C,2 D,2 | A,,2 B,,2 F,,2 | B,,2 G,,2 D,2 | C,6 | F,,6 :| F,2 E,2 F,2 | B,,6 | %8
 F,2 D,2 C,2 | A,,2 B,,2 F,,2 | C,6 | A,,2 B,,2 G,,2 | D,2 C,2 F,2 | C,6 | F,,6 |] %15

